src/assets/icons/Youtube.svg

<?xml version="1.0" encoding="UTF-8"?>
<svg width="24px" height="24px" viewBox="0 0 24 24" version="1.1" xmlns="http://www.w3.org/2000/svg" xmlns:xlink="http://www.w3.org/1999/xlink">
    <!-- Generator: Sketch 60 (88103) - https://sketch.com -->
    <title>09 Icons / Social / Youtube</title>
    <desc>Created with Sketch.</desc>
    <g stroke="none" stroke-width="1" fill="none" fill-rule="evenodd">
        <path d="M12.238993,3.00060779 C13.5330625,3.0057132 19.7041509,3.05370406 21.3766364,3.50481818 C22.4093182,3.78259091 23.2224545,4.60104545 23.4984545,5.64040909 C24,7.52413636 24,11.4545455 24,11.4545455 C24,11.4545455 24,15.3848182 23.4984545,17.2688182 C23.2224545,18.3080455 22.4093182,19.1265 21.3766364,19.4044091 C19.5846876,19.8876151 12.6285264,19.908177 12.0397574,19.909052 L11.9602426,19.909052 C11.3714736,19.908177 4.41531238,19.8876151 2.62336364,19.4044091 C1.59081818,19.1265 0.777545455,18.3080455 0.501545455,17.2688182 C0.0607933884,15.6131818 0.00736889557,12.3772742 0.000893199463,11.617137 L0.000893199463,11.2919488 C0.00736889557,10.5317896 0.0607933884,7.29580579 0.501545455,5.64040909 C0.777545455,4.60104545 1.59081818,3.78259091 2.62336364,3.50481818 C4.29584913,3.05370406 10.4669375,3.0057132 11.761007,3.00060779 Z M9.54545455,7.88604545 L9.54545455,15.0230455 L15.8181818,11.4546818 L9.54545455,7.88604545 Z" fill="#000000"></path>
    </g>
</svg>

<svg width="24" height="24" viewBox="0 0 24 24" xmlns="http://www.w3.org/2000/svg"><path d="M12.239 3c1.294.006 7.465.054 9.138.505a3.015 3.015 0 012.121 2.135C24 7.524 24 11.455 24 11.455s0 3.93-.502 5.814a3.016 3.016 0 01-2.121 2.135c-1.792.484-8.748.504-9.337.505h-.08c-.589 0-7.545-.021-9.337-.505A3.016 3.016 0 01.502 17.27C.06 15.613.007 12.377 0 11.617v-.325c.006-.76.06-3.996.5-5.652a3.015 3.015 0 012.122-2.135c1.673-.451 7.844-.5 9.138-.504zM9.545 7.887v7.137l6.273-3.568-6.273-3.569z" fill="#000" fill-rule="evenodd"/></svg>
